X:1
T:[ID 6v-23a (= 6-80a)]
T:[ID 6v-23a (= 6-80a)]
T:Bezeichnung standardisiert: Allegro Allegro
T:Urheber unbekannt Datum in der hier transkribierten schriftlichen Quelle: 1775
C:Urheber unbekannt
C:Datum in der hier transkribierten schriftlichen Quelle: 1775
L:1/8
M:2/4
K:D
V:1 treble 
V:1
 (3A/B/c/ | dddd | dddd | dc/B/AG | FD z c | dFec | f/e/d/A/ Ff | feed | dcdF | FEED | %10
 DCCF"^[Notat bricht ab]" | x4 | %12

